X:1
T:From the Deep Star-Laden Sky
T:From the Deep Star-Laden Sky
T:George Frederick Root
T:Clara Louise Root Burnham, 1887
T:Public Domain Courtesy of the Cyber Hymnal™
C:George Frederick Root
Z:Public Domain
Z:Courtesy of the Cyber Hymnal™
%%score ( 1 2 ) ( 3 4 )
L:1/8
Q:1/4=100
M:4/4
K:F
V:1 treble 
V:2 treble 
V:3 bass 
V:4 bass 
V:1
 [A,F]>[B,G] | [CA]2 [FA]2 [Ec]2 [DB]2 | [CA]6 [CG]>[CF] | [CE]2 [Ec]2 [Ec]2 [Gc]2 | %4
w: 1.~From the|deep star- la- den|sky Fell the|in- cense down the|
w: 2.~Stood the|shep- herds in the|night List- ening|spell- bound to the|
w: 3.~So with|peace, good will on|earth Comes the|ho- ly Christ- mas|
 ([Bd]2 [Ac]2) [GB]2 [EG]2 | [FA]2 [FA]2 [Ec]2 [DB]2 | A6 [Ac]>[FA] | [EG]2 [Ec]2 [Fc]2 [F=B]2 | %8
w: air; * Gold- en|cen- sers swing- ing|high To the|sound of mu- sic|
w: song * That with|more than earth- ly|might Rolled the|hap- py vales a-|
w: tide, * Bless- èd|day of Je- sus’|birth, Spread its|glor- ies far and|
 [Ec]6 z2 ||"^Refrain" [Fc]2 [Fd]>[FA] [Fc]2 z2 | [Ec]2 [Ed]>[EG] [Ec]2 z2 | %11
w: rare.|||
w: long.|Glo- ry to God!|Glo- ry to God!|
w: wide.|||
 [Fc]2 [Ff]>[Ce] [Ff]2 F>[FG] | [FA]2 [EG]2 F2 |] %13
w: ||
w: Glo- ry to God, and good|will to men!|
w: ||
V:2
 x2 | x8 | x8 | x8 | x8 | x8 | (C2 F4) x2 | x8 | x8 || x8 | x8 | x6 F3/2 x/ | x4 F2 |] %13
V:3
 F,>F, | F,2 F,2 F,2 F,2 | F,6 [F,B,]>[F,A,] | [C,G,]2 [C,G,]2 [C,G,]2 [C,G,]2 | %4
 [C,G,]4 [C,G,]2 [C,C]2 | [F,C]2 [F,C]2 [F,C]2 [F,C]2 | [F,C]6 [F,C]>[F,C] | %7
 [G,C]2 [G,C]2 [G,D]2 [G,D]2 | [C,C]6 z2 || [F,A,]2 [F,A,]>[F,A,] [F,A,]2 z2 | %10
 [C,B,]2 [C,B,]>[C,B,] [C,B,]2 z2 | [F,A,]2 [F,A,]>[G,B,] [A,C]2 [A,C]>[B,D] | %12
 C2 [C,B,]2 [F,A,]2 |] %13
V:4
 F,>F, | F,2 F,2 F,2 F,2 | F,6 x2 | x8 | x8 | x8 | x8 | x8 | x8 || x8 | x8 | x8 | C2 x4 |] %13

